X: 116
T: Tam Lin   [Am]
%T: the Howling Wind
%T: the Glasgow Reel
C: Davey Arthur?
R: reel
S: Elke Baker's version
Z: John Chambers <jc:trillian.mit.edu>
M: C|
L: 1/8
K: Am
(D \
| "Am"~E2)AE cEAE \
| "F"~F2AF cFAF \
| "G"~G2BG dGBd \
|1 "Am"cBAG "G"AGE \
:|2 "G" cBAG "Am"A3 |]
(^g \
| "Am"a)ged c2A(^g \
| "Am"a)ged c2A(^f \
| "G"~g2)dg Bgd^f \
| ~g2dg Bgd |]
(^g \
| "Am"a)ged c2A(^g \
| a)ged c2AG \
| "F"FEFG AGAB \
| "G"cBAG "Am"A3 |]

%%sep 1 1 500

